svgs/light/ticket.svg

<svg xmlns="http://www.w3.org/2000/svg" viewBox="0 0 576 512"><!--! Font Awesome Pro 6.6.0 by @fontawesome - https://fontawesome.com License - https://fontawesome.com/license (Commercial License) Copyright 2024 Fonticons, Inc. --><path d="M64 64C28.7 64 0 92.7 0 128l0 66c0 7.3 4.9 13.7 12 15.5c20.7 5.3 36 24.1 36 46.5s-15.3 41.2-36 46.5C4.9 304.3 0 310.7 0 318l0 66c0 35.3 28.7 64 64 64l448 0c35.3 0 64-28.7 64-64l0-66c0-7.3-4.9-13.7-12-15.5c-20.7-5.3-36-24.1-36-46.5s15.3-41.2 36-46.5c7.1-1.8 12-8.2 12-15.5l0-66c0-35.3-28.7-64-64-64L64 64zM32 128c0-17.7 14.3-32 32-32l448 0c17.7 0 32 14.3 32 32l0 54.7c-28.2 12.3-48 40.5-48 73.3s19.8 61 48 73.3l0 54.7c0 17.7-14.3 32-32 32L64 416c-17.7 0-32-14.3-32-32l0-54.7C60.2 317 80 288.8 80 256s-19.8-61-48-73.3L32 128zm128 64l256 0 0 128-256 0 0-128zm-32 0l0 128c0 17.7 14.3 32 32 32l256 0c17.7 0 32-14.3 32-32l0-128c0-17.7-14.3-32-32-32l-256 0c-17.7 0-32 14.3-32 32z"/></svg>

<svg xmlns="http://www.w3.org/2000/svg" viewBox="0 0 576 512"><!--! Font Awesome Pro 6.4.0 by @fontawesome - https://fontawesome.com License - https://fontawesome.com/license (Commercial License) Copyright 2023 Fonticons, Inc. --><path d="M64 64C28.7 64 0 92.7 0 128v66c0 7.3 4.9 13.7 12 15.5c20.7 5.3 36 24.1 36 46.5s-15.3 41.2-36 46.5C4.9 304.3 0 310.7 0 318v66c0 35.3 28.7 64 64 64H512c35.3 0 64-28.7 64-64V318c0-7.3-4.9-13.7-12-15.5c-20.7-5.3-36-24.1-36-46.5s15.3-41.2 36-46.5c7.1-1.8 12-8.2 12-15.5V128c0-35.3-28.7-64-64-64H64zM32 128c0-17.7 14.3-32 32-32H512c17.7 0 32 14.3 32 32v54.7c-28.2 12.3-48 40.5-48 73.3s19.8 61 48 73.3V384c0 17.7-14.3 32-32 32H64c-17.7 0-32-14.3-32-32V329.3C60.2 317 80 288.8 80 256s-19.8-61-48-73.3V128zm128 64H416V320H160V192zm-32 0V320c0 17.7 14.3 32 32 32H416c17.7 0 32-14.3 32-32V192c0-17.7-14.3-32-32-32H160c-17.7 0-32 14.3-32 32z"/></svg>
